X:63
T:Tomgraney Castle
Z: id:dc-hornpipe-65
M:C|
L:1/8
K:A Dorian
cB|AGAB AGEG|AGAB cBcd|(3efg fa gedc|B2G2 G2cB|!
AGAB AGEG|AGAB cBcd|(3efg fa gedB|c2A2 A2:|!
(3efg|a2ab ageg|agab a2ge|dega gedc|B2G2 G2|!
[1 (3efg|a2ab ageg|agab a2ge|dega gedB|c2A2 A2:|!
[2 cB|AGAB AGEG|AGAB cBcd|(3efg fa gedB|c2A2 A2|]!

